contributed-vectors/reword_german.svg

<svg xmlns="http://www.w3.org/2000/svg" viewBox="0 0 192 192"><path fill="#56595b" d="M168 32.5H18a10 10 0 0 0-10 10v107a10 10 0 0 0 10 10h156a10 10 0 0 0 10-10v-101h-16Z"/><path fill="#9abeff" d="M59 88.92V91a3.2 3.2 0 0 0-1-.13 4.3 4.3 0 0 0-4.4 4.26v7.18h-2.12V89.08h2.05V91a5.35 5.35 0 0 1 4.4-2.15 4.46 4.46 0 0 1 1.07.07ZM74.33 96H62.65a4.85 4.85 0 0 0 9.26 1.66h2.19a6.89 6.89 0 1 1-6.62-8.83 6.84 6.84 0 0 1 6.88 6.74Zm-11.41-1.86H72a4.74 4.74 0 0 0-4.53-3.27 4.81 4.81 0 0 0-4.55 3.27Z"/><path fill="#fff" d="m97.83 89.08-4.49 13.23H90l-3-9-3 9h-3.36l-4.56-13.23h3.54l2.84 9.76 3.21-9.76h2.64l3.21 9.82 2.84-9.82ZM99.19 95.7a7.11 7.11 0 1 1 7.11 6.87 6.85 6.85 0 0 1-7.11-6.87Zm11.08 0a4 4 0 1 0-4 4 3.94 3.94 0 0 0 4-4ZM125.11 88.92v2.94a5.22 5.22 0 0 0-1.12-.13 3.78 3.78 0 0 0-4 3.87v6.71h-3.14V89.08H120v1.82a4.9 4.9 0 0 1 4.07-2.08 5.13 5.13 0 0 1 1.04.1ZM140.52 78.77v23.54h-3.14v-1.39a6.2 6.2 0 0 1-4.26 1.65 6.88 6.88 0 0 1 0-13.75 6.24 6.24 0 0 1 4.26 1.65v-11.7Zm-3 16.93a4 4 0 1 0-4 4 4 4 0 0 0 3.96-4Z"/><path fill="#e85e5c" d="M151.97 43.18H184v10.68h-32.03z"/><path fill="#4a4a4a" d="M174 32.5h-22v10.68h32v-.68a10 10 0 0 0-10-10Z"/><path fill="#f9de81" d="M152 54.53a10 10 0 0 0 10 10h22V53.85h-32Z"/></svg>

<svg xmlns="http://www.w3.org/2000/svg" viewBox="0 0 192 192"><title>ReWord German</title><path d="M168,32.5H18a10,10,0,0,0-10,10v107a10,10,0,0,0,10,10H174a10,10,0,0,0,10-10v-101H168Z" fill="#56595b"/><path d="M59,88.92V91a3.2,3.2,0,0,0-1-.13,4.3,4.3,0,0,0-4.4,4.26v7.18H51.48V89.08h2.05V91a5.35,5.35,0,0,1,4.4-2.15A4.46,4.46,0,0,1,59,88.92Z" fill="#9abeff"/><path d="M74.33,96H62.65a4.85,4.85,0,0,0,9.26,1.66H74.1a6.89,6.89,0,1,1-6.62-8.83,6.84,6.84,0,0,1,6.88,6.74ZM62.92,94.14H72a4.74,4.74,0,0,0-4.53-3.27A4.81,4.81,0,0,0,62.92,94.14Z" fill="#9abeff"/><path d="M97.83,89.08l-4.49,13.23H90l-3-9-3,9H80.64L76.08,89.08h3.54l2.84,9.76,3.21-9.76h2.64l3.21,9.82,2.84-9.82Z" fill="#fff"/><path d="M99.19,95.7a7.11,7.11,0,1,1,7.11,6.87A6.85,6.85,0,0,1,99.19,95.7Zm11.08,0a4,4,0,1,0-4,4A3.94,3.94,0,0,0,110.27,95.7Z" fill="#fff"/><path d="M125.11,88.92v2.94a5.22,5.22,0,0,0-1.12-.13,3.78,3.78,0,0,0-4,3.87v6.71h-3.14V89.08H120V90.9a4.9,4.9,0,0,1,4.07-2.08A5.13,5.13,0,0,1,125.11,88.92Z" fill="#fff"/><path d="M140.52,78.77v23.54h-3.14v-1.39a6.2,6.2,0,0,1-4.26,1.65,6.88,6.88,0,0,1,0-13.75,6.24,6.24,0,0,1,4.26,1.65V78.77Zm-3,16.93a4,4,0,1,0-4,4A4,4,0,0,0,137.48,95.7Z" fill="#fff"/><rect x="151.97" y="43.18" width="32.03" height="10.68" fill="#e85e5c"/><path d="M174,32.5H152V43.18h32V42.5A10,10,0,0,0,174,32.5Z" fill="#4a4a4a"/><path d="M152,54.53a10,10,0,0,0,10,10h22V53.85H152Z" fill="#f9de81"/></svg>
